X:62
T:Admiral Rodney's delight
M:6/8
L:1/8
B:Thompson's Compleat Collection of 200 Favourite Country Dances, vol. 2 (London, 1765)
Z:Transcribed and edited by Flynn Titford-Mock, 2007
Z:abc's:AK/Fiddler's Companion
K:G
gdB ecA | dBG AFD | gdB ecA |1 efg cBG :|2 BdF G3 ||
|: def gbg | faf e^cA | def gbg | fa^c d2g :|
|: d2e dBG | F2G AFD | d2g dBG | cAF G2g :|

